src/components/WarCrimes/icons/crimes/killing.svg

<?xml version="1.0" encoding="UTF-8" standalone="no"?>
<svg width="134px" height="125px" viewBox="0 0 134 125" version="1.1" xmlns="http://www.w3.org/2000/svg" xmlns:xlink="http://www.w3.org/1999/xlink">
    <!-- Generator: Sketch 41.2 (35397) - http://www.bohemiancoding.com/sketch -->
    <title>Killing</title>
    <desc>Created with Sketch.</desc>
    <defs></defs>
    <g id="Page-1" stroke="none" stroke-width="1" fill="none" fill-rule="evenodd">
        <g id="Killing">
            <g transform="translate(2.000000, 0.000000)" id="Group">
                <g>
                    <g fill="#D0011B">
                        <ellipse id="Oval" transform="translate(34.017648, 12.983380) rotate(-78.831644) translate(-34.017648, -12.983380) " cx="34.0176478" cy="12.98338" rx="11" ry="11"></ellipse>
                        <path d="M71.7177574,55.7909153 L71.9947059,55.089121 C72.1058824,55.1263185 72.2125919,55.1645081 72.3242647,55.2022016 C72.7406801,55.3405766 73.1640441,55.4065403 73.5799632,55.4065403 C75.2426471,55.4070363 76.7916728,54.3550887 77.3460662,52.6921089 C78.0309926,50.6383065 76.9400735,48.4228185 74.9071324,47.7021774 L75.1140993,47.1769476 L91.2763787,53.5407097 L93.6418566,47.5419798 L70.8615993,38.5719073 L68.4961213,44.5706371 L70.4968015,45.3587298 L70.2263051,46.0451492 C60.8815257,42.5609758 53.5791176,38.6785403 48.4615257,35.5326169 C45.495,33.7104315 43.2615441,32.1352379 41.7879596,31.0317097 C41.0499265,30.4811855 40.5044669,30.0467177 40.1500919,29.7585605 C39.9729044,29.6142339 39.843364,29.5071048 39.7639522,29.4391573 C39.202114,28.9481492 38.6636029,28.6709032 38.1002757,28.5166573 C37.7146324,28.3862177 37.3026838,28.3128145 36.8723713,28.3128145 L18.4820956,28.3128145 C17.9321691,28.2175887 17.3544485,28.2324677 16.7797059,28.3857218 C16.2516176,28.5226089 11.9837316,29.7922863 7.8553125,34.6716169 C3.71448529,39.5410282 -0.0208455882,47.8762621 -4.82718452e-13,61.2406089 C-4.82718452e-13,63.8905645 0.142941176,66.743371 0.453639706,69.8168831 C0.661102941,71.8602702 2.38582721,73.384875 4.39891544,73.384875 C4.53341912,73.384875 4.66841912,73.3779315 4.80441176,73.3645403 C6.98575368,73.1433387 8.57597426,71.1976573 8.35461397,69.0173831 C8.06823529,66.1908629 7.94018382,63.6048871 7.94018382,61.2401129 C7.96152574,49.3621815 11.0992831,43.1903589 13.8613235,39.8639032 L13.8613235,64.3319758 L8.06972426,115.788629 C7.69053309,119.15377 10.1135846,122.188597 13.4811397,122.567516 C16.8486949,122.94594 19.8866912,120.524625 20.265386,117.159484 L25.5849816,69.8992137 L28.9843015,69.8992137 L34.3038971,117.159484 C34.6825919,120.524625 37.7205882,122.94594 41.0881434,122.567516 C44.4556985,122.188597 46.87875,119.15377 46.4995588,115.788629 L40.7084559,64.3369355 L40.7084559,39.9859113 C46.1600735,43.6451613 55.1028309,48.8602621 67.314375,53.428125 L67.0994669,53.9731935 L71.7177574,55.7909153 Z" id="Shape"></path>
                    </g>
                    <g transform="translate(71.470588, 48.108871)" fill="#FFFFFF">
                        <circle id="Oval" transform="translate(47.421556, 15.848114) rotate(-44.740708) translate(-47.421556, -15.848114) " cx="47.4215563" cy="15.8481138" r="11"></circle>
                        <path d="M34.8384375,63.3797177 L17.9098346,50.3972661 C22.1375184,44.3980403 28.7604596,39.3322258 32.7340257,35.1085645 C36.5691176,31.6868831 38.1375,25.6941048 35.1119118,22.5471895 C32.9672978,20.3163266 29.1128493,19.0069718 24.9189154,20.1496815 C26.2629596,20.4680927 27.3598346,20.8187419 28.1202022,21.0920202 L28.2050735,21.1232661 L28.2254228,21.1297137 L28.2561949,21.141121 C30.8092831,22.1256169 32.0843382,25.0017339 31.1001287,27.5529919 C30.3675551,29.4530444 28.5058456,30.7286734 26.4669485,30.7286734 C25.8589522,30.7286734 25.2593934,30.6180726 24.6876287,30.3983589 L24.6846507,30.3973669 L24.6280699,30.3770323 C24.5536213,30.35025 24.4325184,30.3080927 24.2687316,30.2550242 C24.0190809,30.1741815 23.4929779,30.0129919 22.8006066,29.842875 C21.8794301,29.6186976 20.046011,29.2417621 18.1177941,29.2417621 L18.0572426,29.2417621 C16.5915993,29.2417621 15.2470588,29.4614758 14.1670588,29.8775927 C13.095,30.2986694 11.5300919,30.8000927 10.6501103,31.5986008 C10.276875,32.0489395 9.91306985,32.5057258 9.55670956,32.9709435 C9.80040441,32.4685282 10.0614706,32.0340605 10.3294853,31.6546452 C10.328989,31.6432379 10.3275,31.6298468 10.3265074,31.6184395 C10.3900368,31.5465242 10.4560478,31.4770887 10.5151103,31.3997177 C11.4625919,30.1717016 12.5277022,29.4555242 13.8092096,28.9536048 C15.0837684,28.4621008 16.5806801,28.2468508 18.09,28.2498266 C19.9134926,28.2468508 21.7240809,28.5598065 23.035864,28.8802016 C23.691011,29.0403992 24.2230699,29.1986129 24.5759559,29.3116935 C24.7521507,29.3692258 24.8841728,29.4148548 24.9635846,29.443621 C25.0027941,29.4575081 25.0305882,29.4669315 25.0434926,29.4723871 C27.0883456,30.258 29.3853309,29.2402742 30.173989,27.1963911 C30.9631434,25.1525081 29.9446875,22.8556815 27.8983456,22.0670927 C27.6422426,21.985754 23.4666728,20.3351734 18.0909926,20.3128548 C15.8704412,20.3163266 13.4161213,20.6084516 10.9632904,21.5458306 C10.447114,21.7422339 9.93242647,21.9768266 9.42270221,22.2377056 C7.51582721,23.2112903 5.68538603,24.6347177 4.20386029,26.583871 C4.20286765,26.5853589 4.201875,26.5868468 4.20088235,26.5883347 C1.84830882,29.6717661 0.435772059,33.8329355 0.125073529,39.1794677 C0.305735294,39.2017863 0.491360294,39.2246008 0.684926471,39.2474153 C2.02053309,39.4051331 3.62961397,39.559875 5.23125,39.6397258 C4.9696875,40.1103992 4.70862132,40.5929758 4.44705882,41.0874556 C2.86080882,40.9882621 1.32170956,40.8270726 0.0714705882,40.6728266 C0.0660110294,40.9520565 0.0600551471,41.2297984 0.0600551471,41.5149798 C0.0600551471,42.3293589 0.0823897059,43.1710161 0.129540441,44.0459032 C0.199522059,45.3299637 0.874522059,46.4359718 1.86121324,47.109 C0.544963235,52.3925444 2.82060662,54.7905484 5.84520221,56.7674758 C5.87895221,56.7942581 5.90873162,56.8240161 5.94297794,56.8503024 L12.7867831,62.099625 L7.40365809,62.099625 C3.97753676,62.099625 1.19961397,64.8755565 1.19961397,68.2992218 C1.19961397,71.7223911 3.97753676,74.4988185 7.40365809,74.4988185 L31.0614154,74.4988185 C33.7217096,74.4988185 36.080239,72.8100484 36.9368934,70.2925161 C37.7915625,67.773 36.9493015,64.9975645 34.8384375,63.3797177 Z" id="Shape"></path>
                    </g>
                </g>
            </g>
        </g>
    </g>
</svg>

<svg width="134" height="125" viewBox="0 0 134 125" xmlns="http://www.w3.org/2000/svg"><title>Killing</title><g fill="none" fill-rule="evenodd"><g fill="#D0011B" transform="translate(2)"><ellipse transform="rotate(-78.832 34.018 12.983)" cx="34.018" cy="12.983" rx="11" ry="11"/><path d="M71.718 55.79l.277-.7c.11.036.218.075.33.112a3.97 3.97 0 0 0 5.022-2.51 3.964 3.964 0 0 0-2.44-4.99l.207-.525 16.162 6.364 2.366-5.999-22.78-8.97-2.366 5.999 2 .788-.27.686c-9.344-3.484-16.647-7.366-21.764-10.512-2.967-1.823-5.2-3.398-6.674-4.501a49.25 49.25 0 0 1-2.024-1.593c-.562-.49-1.1-.768-1.664-.922a3.822 3.822 0 0 0-1.228-.204h-18.39a3.96 3.96 0 0 0-1.702.073c-.528.137-4.796 1.406-8.925 6.286C3.715 39.54-.02 47.876 0 61.24c0 2.65.143 5.502.454 8.576a3.97 3.97 0 0 0 4.35 3.548 3.968 3.968 0 0 0 3.55-4.348 77.235 77.235 0 0 1-.414-7.777c.022-11.878 3.16-18.05 5.921-21.376v24.468L8.07 115.789a6.133 6.133 0 0 0 5.411 6.779 6.136 6.136 0 0 0 6.784-5.409l5.32-47.26h3.4l5.319 47.26a6.136 6.136 0 0 0 6.784 5.409 6.133 6.133 0 0 0 5.412-6.78l-5.792-51.451V39.986c5.452 3.66 14.395 8.874 26.606 13.442l-.215.545 4.619 1.818z"/></g><g transform="translate(73.47 48.109)" fill="#FFF"><circle transform="rotate(-44.741 47.422 15.848)" cx="47.422" cy="15.848" r="11"/><path d="M34.838 63.38L17.91 50.397c4.228-5.999 10.85-11.065 14.824-15.288 3.835-3.422 5.404-9.415 2.378-12.562-2.145-2.23-6-3.54-10.193-2.397 1.344.318 2.44.669 3.201.942l.085.031.02.007.031.011a4.964 4.964 0 0 1 2.844 6.412 4.994 4.994 0 0 1-4.633 3.176c-.608 0-1.208-.11-1.78-.33l-.002-.002-.057-.02a12.103 12.103 0 0 0-.36-.122c-.249-.08-.775-.242-1.467-.412-.922-.224-2.755-.601-4.683-.601h-.06c-1.466 0-2.81.22-3.89.636-1.073.42-2.638.922-3.518 1.72-.373.45-.737.908-1.093 1.373.243-.502.504-.937.772-1.316l-.002-.037c.063-.071.129-.14.188-.218.948-1.228 2.013-1.944 3.294-2.446 1.275-.492 2.772-.707 4.281-.704 1.823-.003 3.634.31 4.946.63a23.1 23.1 0 0 1 1.54.432c.176.057.308.103.388.132l.08.028a3.972 3.972 0 0 0 5.13-2.276 3.966 3.966 0 0 0-2.276-5.129c-.256-.081-4.431-1.732-9.807-1.754-2.22.003-4.675.295-7.128 1.233-.516.196-1.03.43-1.54.692a15.222 15.222 0 0 0-5.222 4.35C1.848 29.672.436 33.833.125 39.18a68.993 68.993 0 0 0 5.106.46c-.261.471-.522.954-.784 1.448-1.586-.099-3.125-.26-4.376-.414-.005.28-.01.557-.01.842 0 .814.021 1.656.069 2.53A3.961 3.961 0 0 0 1.86 47.11c-1.316 5.284.96 7.682 3.984 9.658.034.027.064.057.098.083l6.844 5.25H7.404A6.202 6.202 0 0 0 1.2 68.3c0 3.422 2.778 6.199 6.204 6.199H31.06a6.2 6.2 0 0 0 3.777-11.12z"/></g></g></svg>
